X:1
T:Title
%%score ( 1 2 ) { 3 | 4 }
L:1/8
Q:1/4=95
M:4/4
K:Bb
V:1 treble nm="Grand Piano, Staff 1"
V:2 treble 
V:3 bass nm="Choir Pad, Silver Threads"
V:4 bass 
V:1
 [Fd]3 [Ge] [Fd][DF][CE][Ec] | B4 B,2 z2 | [EF]3 [EG] [EA][Ee] [EG]>[Ee] | [Fd]6 z2 | %4
w: By~Hart~Pease~Danks * * * * *||||
 [Fd]3 [Ge] [Fd][DF] [CE]>[Ec] | B4 B,2 z2 | [EF]3 [EG] [EA][Ee] [EG]>[EA] | [DB]6 z2 | %8
w: ||||
 [EA]3 [EB] [Ec][CF][CE][EA] | B3 F [Fd]2 z2 | [Fc]3 [Fc] [=Ec][Ec] [Ed]>[Ec] | %11
w: |||
 c2- [Gc-]2 [Fc]2 E2 | [Fd]3 [Ge] [Fd][DF][CE][Ec] | B4 B,2 z2 | [EF]3 [EG] [EA][Ge][Fd][Ec] | %15
w: ||||
 B2- [EB-]2 [DB]4 | [EA]3 [EB] [Ec][CF][CE][EA] | B3 F [Fd]2 z2 | [Fc][Fc][=Ec][Ec] [Ed]>[Ec] c2- | %19
w: ||||
 [Gc-]2 [Fc]2 E2 [Fd]2- | [Fd][Ge][Fd][DF] [CE][Ec] B2- | B2 B,2 z2 [EF]2- | %22
w: |||
 [EF][EG][EA][Ge] [Fd][Ec] B2- | [EB-]2 [DB]4 z2 |] %24
w: ||
V:2
 x8 | D6 z2 | x8 | x8 | x8 | D6 z2 | x8 | x8 | x8 | D4 z4 | x8 | F2 z2 z4 | x8 | D6 z2 | x8 | %15
 D2 z2 z4 | x8 | D4 z4 | z4 z2 F2 | x8 | z4 z2 D2- | D4 z4 | z4 z2 D2 | x8 |] %24
V:3
 B,3 B, B,B,A,A, | B,4 F,2 z2 | A,3 B, CA, C>A, | B,6 z2 | B,3 B, B,B, A,>A, | B,4 F,2 z2 | %6
 A,3 B, CA, G,>F, | F,6 z2 | C3 B, A,A,A,C | B,6 z2 | A,3 A, G,G, B,>B, | A,2 B,2 A,4 | %12
 B,3 B, B,B,A,A, | B,4 F,2 z2 | A,3 B, CA,A,F, | F,2 G,2 F,4 | C3 B, A,A,A,C | B,6 z2 | %18
 A,A,G,G, B,>B, A,2 | B,2 A,4 B,2- | B,B,B,B, A,A, B,2- | B,2 F,2 z2 A,2- | A,B,CA, A,F, F,2 | %23
 G,2 F,4 z2 |] %24
V:4
 B,,3 B,, B,,B,,F,F, | B,,6 z2 | F,3 F, F,F, F,,>F,, | B,,6 z2 | B,,3 B,, B,,B,, F,>F, | B,,6 z2 | %6
 F,3 F, F,F, F,,>F,, | B,,6 z2 | F,3 F, F,F,F,F, | B,,6 z2 | C,3 C, C,C, C,>C, | F,,8 | %12
 B,,3 B,, B,,B,,F,F, | B,,6 z2 | F,3 F, F,F,F,,F,, | B,,8 | F,3 F, F,F,F,F, | B,,6 z2 | %18
 C,C,C,C, C,>C, F,,2- | F,,6 B,,2- | B,,B,,B,,B,, F,F, B,,2- | B,,4 z2 F,2- | %22
 F,F,F,F, F,,F,, B,,2- | B,,6 z2 |] %24

